groups/nitrogen/isocyano.svg

<?xml version='1.0' encoding='iso-8859-1'?>
<svg version='1.1' baseProfile='full'
              xmlns='http://www.w3.org/2000/svg'
                      xmlns:rdkit='http://www.rdkit.org/xml'
                      xmlns:xlink='http://www.w3.org/1999/xlink'
                  xml:space='preserve'
width='256px' height='256px' viewBox='0 0 256 256'>
<!-- END OF HEADER -->
<rect style='opacity:1.0;fill:#FFFFFF;stroke:none' width='256.0' height='256.0' x='0.0' y='0.0'> </rect>
<path class='bond-0 atom-0 atom-1' d='M 42.9,161.5 L 113.4,121.1' style='fill:none;fill-rule:evenodd;stroke:#000000;stroke-width:2.0px;stroke-linecap:butt;stroke-linejoin:miter;stroke-opacity:1' />
<path class='bond-1 atom-1 atom-2' d='M 155.0,97.3 L 199.1,72.0' style='fill:none;fill-rule:evenodd;stroke:#000000;stroke-width:2.0px;stroke-linecap:butt;stroke-linejoin:miter;stroke-opacity:1' />
<path class='bond-1 atom-1 atom-2' d='M 147.6,84.4 L 191.7,59.1' style='fill:none;fill-rule:evenodd;stroke:#000000;stroke-width:2.0px;stroke-linecap:butt;stroke-linejoin:miter;stroke-opacity:1' />
<path class='bond-1 atom-1 atom-2' d='M 162.4,110.1 L 206.5,84.9' style='fill:none;fill-rule:evenodd;stroke:#000000;stroke-width:2.0px;stroke-linecap:butt;stroke-linejoin:miter;stroke-opacity:1' />
<path class='atom-1' d='M67.4164,204.33 C70.6321,202.489 68.1774,198.201 64.9617,200.042 C61.7461,201.883 59.2914,197.595 62.507,195.754 C65.7227,193.913 63.268,189.626 60.0524,191.467 C56.8367,193.307 54.382,189.02 57.5977,187.179 C60.8133,185.338 58.3587,181.05 55.143,182.891 C51.9273,184.732 49.4726,180.444 52.6883,178.603 C55.904,176.762 53.4493,172.474 50.2336,174.315 C47.018,176.156 44.5633,171.868 47.7789,170.028 C50.9946,168.187 48.5399,163.899 45.3243,165.74 C42.1086,167.581 39.6539,163.293 42.8696,161.452 C46.0852,159.611 43.6305,155.323 40.4149,157.164 C37.1992,159.005 34.7445,154.717 37.9602,152.876 C41.1759,151.035 38.7212,146.748 35.5055,148.589 C32.2899,150.429 29.8352,146.142 33.0508,144.301 C36.2665,142.46 33.8118,138.172 30.5961,140.013 C27.3805,141.854 24.9258,137.566 28.1415,135.725 C31.3571,133.884 28.9024,129.597 25.6868,131.437 C22.4711,133.278 20.0164,128.991 23.2321,127.15 C26.4478,125.309 23.9931,121.021 20.7774,122.862 C17.5617,124.703 15.1071,120.415 18.3227,118.574' style='fill:none;stroke:#7F7F7F;stroke-width:2.0px;stroke-linecap:butt;stroke-linejoin:miter;stroke-opacity:1' />
<text x='116.6' y='132.4' class='atom-1' style='font-size:40px;font-style:normal;font-weight:normal;fill-opacity:1;stroke:none;font-family:sans-serif;text-anchor:start;fill:#000000' >N</text>
<text x='144.2' y='116.4' class='atom-1' style='font-size:26px;font-style:normal;font-weight:normal;fill-opacity:1;stroke:none;font-family:sans-serif;text-anchor:start;fill:#000000' >+</text>
<text x='202.4' y='83.3' class='atom-2' style='font-size:40px;font-style:normal;font-weight:normal;fill-opacity:1;stroke:none;font-family:sans-serif;text-anchor:start;fill:#000000' >C</text>
<text x='230.0' y='67.3' class='atom-2' style='font-size:26px;font-style:normal;font-weight:normal;fill-opacity:1;stroke:none;font-family:sans-serif;text-anchor:start;fill:#000000' >-</text>
</svg>

<svg height="256" viewBox="0 0 256 256" width="256" xmlns="http://www.w3.org/2000/svg"><path d="m0 0h256v256h-256z" fill="#fff"/><g fill="none" stroke-width="2"><path d="m42.9 161.5 70.5-40.4" stroke="#000"/><path d="m155 97.3 44.1-25.3" stroke="#000"/><path d="m147.6 84.4 44.1-25.3" stroke="#000"/><path d="m162.4 110.1 44.1-25.2" stroke="#000"/><path d="m67.416 204.33c3.216-1.841.761-6.129-2.454-4.288-3.216 1.841-5.671-2.447-2.455-4.288s.761-6.128-2.455-4.287c-3.215 1.84-5.67-2.447-2.454-4.288 3.215-1.841.761-6.129-2.455-4.288s-5.67-2.447-2.455-4.288c3.216-1.841.761-6.129-2.454-4.288-3.216 1.841-5.671-2.447-2.455-4.287 3.216-1.841.761-6.129-2.455-4.288-3.215 1.841-5.67-2.447-2.454-4.288 3.215-1.841.761-6.129-2.455-4.288s-5.67-2.447-2.455-4.288c3.216-1.841.761-6.128-2.454-4.287-3.216 1.84-5.671-2.447-2.455-4.288s.761-6.129-2.455-4.288c-3.215 1.841-5.67-2.447-2.454-4.288 3.215-1.841.76-6.128-2.455-4.288-3.216 1.841-5.671-2.446-2.455-4.287s.761-6.129-2.455-4.288c-3.215 1.841-5.67-2.447-2.454-4.288" stroke="#7f7f7f"/></g><text font-family="sans-serif" font-size="40" x="116.6" y="132.4">N</text><text font-family="sans-serif" font-size="26" x="144.2" y="116.4">+</text><text font-family="sans-serif" font-size="40" x="202.4" y="83.3">C</text><text font-family="sans-serif" font-size="26" x="230" y="67.3">-</text></svg>
